X:3457
L:1/8
Q:1/4=120
M:4/4
K:Dmin
"^Slowly" F | (D>E)(F>G) (A>=B) c2 | (G>A)(G>F) (E C2) E | (D>E)(F>G) (A>=B) c2 | 
 (A<f)(e>d) (A d2) || A | (d>e)(f>d) (c>B) A2 | (F>A)(c>A) (G>E) C2 | (d>f)(e>f) (d>c)(A>G) | 
 (F>G)(A>G) (F D2) A | (d>e)(f>d) (c>B) A2 | (F>A)(c>A) (G>E) C2 | 
 (d>f)(e>f) !fermata!d2{A} !fermata!A2 | (F>G)(A>E) (F D2) ||

